!!!ONR: No. 5
!! From Harold Courlander, "Haiti Singing"
!! Chapel Hill: University of North Carolina Press, 1939
!! Copyright University of North Carolina Press
!!!ENC: D. Huron
**kern
*clefG2
*k[]
*M2/4
=1-
4r
8g
8a
=2
(4cc
8g
8a
=3
4g)
(8cc
[8ee
=4
4.ee]
8dd
=5
4cc)
(8g
8a
=6
[4g
8g])
(8cc
=7
[4ee
8ee]
8dd
=8
4cc
8g
8a
=9
[4g
8g])
(8cc
=10
[4ee
8ee])
8cc
=11
8dd
8cc
8a
8a
=12
4cc
[4cc
=13
4cc]
4r
==
*-
